Newaita-dark/actions/32/kdenlive-zoom-small.svg

<svg height="32" viewBox="0 0 32 32" width="32" xmlns="http://www.w3.org/2000/svg"><g fill="#e0e0e0"><path d="m19.859375 6.234375c-.003906.152344-.058594.300781-.15625.417969l-3.308594 3.96875c-.273437.332031-.78125.332031-1.054687 0l-3.308594-3.96875c-.371094-.445313-.054688-1.125.527344-1.125h6.617187c.386719 0 .695313.320312.683594.707031zm0 0"/><path d="m19.859375 26.019531c-.003906-.152343-.058594-.300781-.15625-.417969l-3.308594-3.96875c-.273437-.332031-.78125-.332031-1.054687 0l-3.308594 3.96875c-.371094.445313-.054688 1.125.527344 1.125h6.617187c.386719 0 .695313-.320312.683594-.707031zm0 0"/><path d="m5.292969 2.894531c-1.464844 0-2.648438 1.183594-2.648438 2.648438v5.292969h2.648438v-3.96875c0-.734376.589843-1.324219 1.320312-1.324219h3.972657v-2.648438zm15.875 0v2.648438h3.96875c.734375 0 1.324219.589843 1.324219 1.324219v3.96875h2.644531v-5.292969c0-1.464844-1.179688-2.648438-2.644531-2.648438zm-18.523438 18.523438v5.292969c0 1.464843 1.183594 2.644531 2.648438 2.644531h5.292969v-2.644531h-3.972657c-.730469 0-1.320312-.589844-1.320312-1.324219v-3.96875zm23.816407 0v3.96875c0 .734375-.589844 1.324219-1.324219 1.324219h-3.96875v2.644531h5.292969c1.464843 0 2.644531-1.179688 2.644531-2.644531v-5.292969zm0 0"/></g></svg>

<svg xmlns="http://www.w3.org/2000/svg" xmlns:xlink="http://www.w3.org/1999/xlink" width="32px" height="32px" viewBox="0 0 32 32" version="1.1">
<g id="surface1">
     <defs>
  <style id="current-color-scheme" type="text/css">
   .ColorScheme-Text { color:#eeeeee; } .ColorScheme-Highlight { color:#424242; }
  </style>
 </defs>
<path style="fill:currentColor" class="ColorScheme-Text" d="M 19.859375 6.234375 C 19.855469 6.386719 19.800781 6.535156 19.703125 6.652344 L 16.394531 10.621094 C 16.121094 10.953125 15.613281 10.953125 15.339844 10.621094 L 12.03125 6.652344 C 11.660156 6.207031 11.976562 5.527344 12.558594 5.527344 L 19.175781 5.527344 C 19.5625 5.527344 19.871094 5.847656 19.859375 6.234375 Z M 19.859375 6.234375 "/>
     <defs>
  <style id="current-color-scheme" type="text/css">
   .ColorScheme-Text { color:#eeeeee; } .ColorScheme-Highlight { color:#424242; }
  </style>
 </defs>
<path style="fill:currentColor" class="ColorScheme-Text" d="M 19.859375 26.019531 C 19.855469 25.867188 19.800781 25.71875 19.703125 25.601562 L 16.394531 21.632812 C 16.121094 21.300781 15.613281 21.300781 15.339844 21.632812 L 12.03125 25.601562 C 11.660156 26.046875 11.976562 26.726562 12.558594 26.726562 L 19.175781 26.726562 C 19.5625 26.726562 19.871094 26.40625 19.859375 26.019531 Z M 19.859375 26.019531 "/>
     <defs>
  <style id="current-color-scheme" type="text/css">
   .ColorScheme-Text { color:#eeeeee; } .ColorScheme-Highlight { color:#424242; }
  </style>
 </defs>
<path style="fill:currentColor" class="ColorScheme-Text" d="M 5.292969 2.894531 C 3.828125 2.894531 2.644531 4.078125 2.644531 5.542969 L 2.644531 10.835938 L 5.292969 10.835938 L 5.292969 6.867188 C 5.292969 6.132812 5.882812 5.542969 6.613281 5.542969 L 10.585938 5.542969 L 10.585938 2.894531 Z M 21.167969 2.894531 L 21.167969 5.542969 L 25.136719 5.542969 C 25.871094 5.542969 26.460938 6.132812 26.460938 6.867188 L 26.460938 10.835938 L 29.105469 10.835938 L 29.105469 5.542969 C 29.105469 4.078125 27.925781 2.894531 26.460938 2.894531 Z M 2.644531 21.417969 L 2.644531 26.710938 C 2.644531 28.175781 3.828125 29.355469 5.292969 29.355469 L 10.585938 29.355469 L 10.585938 26.710938 L 6.613281 26.710938 C 5.882812 26.710938 5.292969 26.121094 5.292969 25.386719 L 5.292969 21.417969 Z M 26.460938 21.417969 L 26.460938 25.386719 C 26.460938 26.121094 25.871094 26.710938 25.136719 26.710938 L 21.167969 26.710938 L 21.167969 29.355469 L 26.460938 29.355469 C 27.925781 29.355469 29.105469 28.175781 29.105469 26.710938 L 29.105469 21.417969 Z M 26.460938 21.417969 "/>
</g>
</svg>
